X:207
T:L'alambis
S:Entreloup
Z:robin.beech@mcgill.ca
M:4/4
L:1/8
K:D
e3e- eede | f2ef edcd | B2de d2Bd | g2f2 efed |
e3e- eede | f2ef edcd | g2f2 efed |1 BAGB A4 :|2 BAGB A3B |:
BAGB | d3e dBAB | G3B BAGB | d3e dBAG | A3B BAGB |
d3e dBAB | G3B BAGB | g2f2 efed | BAGB A3B :|
